X:1
T: Lady Louden
C:
R:Strathspey
Q: 128
K:C
M:4/4
L:1/16
|:ef|gc3 g3e gc3 g3e|gc3 g3e fd3 d2ef|gc3 g3e gc3 g3e|fa3 g3f ec3 c2ef|
gc3 g3e gc3 g3e|gc3 g3e fd3 d2ef|gc3 g3e gc3 g3e|fa3 g3f ec3 c2e2|
G3c E3c G3c e3c|G3c E3c Ad3 D4|G3c E3c G3c e3c|ea3 g3f ec3 c2e2|
G3c E3c G3c e3c|G3c E3c Ad3 D4|a3f g3e f3d e3c|ea3 g3f ec3 c2:|
